X: 2180
T: I'LL GANG NAE MAIR TO YON TOUN
Q: "Reel."
R: Reel.
%R: reel
B: James Kerr "Merry Melodies" v.2 p.21 #180
Z: 2016 John Chambers <jc:trillian.mit.edu>
M: C
L: 1/8
K: F
uA |\
Fffc A2(Fc) | (A/B/c) (FA) BGGg |\
a/g/f/e/ fc A2(FB) | (A/B/c) (GB) AFF ::\
uB |\
AFcF dFcF |
AF d/c/B/A/ BGGB |\
[1 AFcF dFcF | (A/B/c) (GB) AFF :|\
[2 Afcf dfcf | (A/B/c) (GB) AFF |]

%%sep 1 1 500
%%sep 1 1 500

